X: 24859
T: Magh Seóla
R: barndance
M: 4/4
K: Gmajor
|:"G"B2cd "D" d2 BA|"Em"G4 "G"BcdG|"C"e3 d "Am"cB AG|"G"B3c/B/ "D"A3 e|
"G"d2 B2 "Em"g2 fg|"C"e3 d"Bm"B2 AB|"C"G3 B "D"A3 G|"G" G8:|
|:"G"Bc/B/ AG "D"d3g/f/|"C"ed ce "D"d2 ga|"Em" be gb "D"ag fd|"Bm"dc Bc "D"A3 e|
"G"d2 B2 "Em"g2 fg|"C"e3 d "Bm"B2 AB|"C" G3 B "D"A3 G|"G" G8:|

